X:1
T:The Wren Song (An Dreoilin)
C:Trad Irish wren-day song (pre-1900)
S:Public domain (pre-1929 US)
M:6/8
L:1/8
Q:3/8=88
K:D
H:Bright D major jig for D Irish flute. Range D5-A5 (1st octave only).
H:Wren Day (St Stephen's Day, 26 Dec) — the wren boys dance to this.
d2e fed | edB ABd | f2g a2f | ged efd |
d2e fed | edB ABd | f2g a2f | gfe d3 |
fga a2b | afe d2e | fga a2b | afe dBA |
d2e fed | edB ABd | f2g a2f | gfe d3 |]
